svg/fluentui-system-icons/ic_fluent_weather_sunny_48_regular.svg

<svg width="48" height="48" viewBox="0 0 48 48" fill="none" xmlns="http://www.w3.org/2000/svg">
<path d="M23.999 4.00098C24.6893 4.00098 25.249 4.56062 25.249 5.25098V7.75098C25.249 8.44133 24.6893 9.00098 23.999 9.00098C23.3086 9.00098 22.749 8.44133 22.749 7.75098V5.25098C22.749 4.56062 23.3086 4.00098 23.999 4.00098ZM24.0466 34.0218C29.5558 34.0218 34.0219 29.5557 34.0219 24.0465C34.0219 18.5373 29.5558 14.0712 24.0466 14.0712C18.5373 14.0712 14.0712 18.5373 14.0712 24.0465C14.0712 29.5557 18.5373 34.0218 24.0466 34.0218ZM24.0466 31.5218C19.9181 31.5218 16.5712 28.175 16.5712 24.0465C16.5712 19.918 19.9181 16.5712 24.0466 16.5712C28.1751 16.5712 31.5219 19.918 31.5219 24.0465C31.5219 28.175 28.1751 31.5218 24.0466 31.5218ZM42.75 25.2502C43.4403 25.2502 44 24.6906 44 24.0002C44 23.3099 43.4403 22.7502 42.75 22.7502H40.25C39.5596 22.7502 39 23.3099 39 24.0002C39 24.6906 39.5596 25.2502 40.25 25.2502H42.75ZM23.999 39.0005C24.6893 39.0005 25.249 39.5602 25.249 40.2505V42.7502C25.249 43.4406 24.6893 44.0002 23.999 44.0002C23.3086 44.0002 22.749 43.4406 22.749 42.7502V40.2505C22.749 39.5602 23.3086 39.0005 23.999 39.0005ZM7.74995 25.2502C8.4403 25.2502 8.99995 24.6906 8.99995 24.0002C8.99995 23.3099 8.4403 22.7502 7.74995 22.7502H5.24951C4.55916 22.7502 3.99951 23.3099 3.99951 24.0002C3.99951 24.6906 4.55916 25.2502 5.24951 25.2502H7.74995ZM9.36607 9.36647C9.85422 8.87832 10.6457 8.87832 11.1338 9.36647L13.6338 11.8665C14.122 12.3546 14.122 13.1461 13.6338 13.6342C13.1457 14.1224 12.3542 14.1224 11.8661 13.6342L9.36607 11.1342C8.87791 10.6461 8.87791 9.85463 9.36607 9.36647ZM11.1338 38.6347C10.6457 39.1229 9.85422 39.1229 9.36607 38.6347C8.87791 38.1466 8.87791 37.3551 9.36607 36.867L11.8661 34.367C12.3542 33.8788 13.1457 33.8788 13.6338 34.367C14.122 34.8551 14.122 35.6466 13.6338 36.1347L11.1338 38.6347ZM38.6348 9.36647C38.1467 8.87832 37.3552 8.87832 36.867 9.36647L34.367 11.8665C33.8789 12.3546 33.8789 13.1461 34.367 13.6342C34.8552 14.1224 35.6467 14.1224 36.1348 13.6342L38.6348 11.1342C39.123 10.6461 39.123 9.85463 38.6348 9.36647ZM36.867 38.6347C37.3552 39.1229 38.1467 39.1229 38.6348 38.6347C39.123 38.1466 39.123 37.3551 38.6348 36.867L36.1348 34.367C35.6467 33.8788 34.8552 33.8788 34.367 34.367C33.8789 34.8551 33.8789 35.6466 34.367 36.1347L36.867 38.6347Z" fill="#212121"/>
</svg>

<svg xmlns="http://www.w3.org/2000/svg" width="48" height="48"><path d="M23.999 4.001c.69 0 1.25.56 1.25 1.25v2.5a1.25 1.25 0 0 1-2.5 0v-2.5c0-.69.56-1.25 1.25-1.25Zm.048 30.02c5.509 0 9.975-4.465 9.975-9.974 0-5.51-4.466-9.976-9.975-9.976-5.51 0-9.976 4.466-9.976 9.976 0 5.509 4.466 9.975 9.976 9.975Zm0-2.5a7.475 7.475 0 1 1 0-14.95 7.475 7.475 0 0 1 0 14.95Zm18.703-6.27a1.25 1.25 0 0 0 0-2.5h-2.5a1.25 1.25 0 0 0 0 2.5h2.5ZM23.999 39c.69 0 1.25.56 1.25 1.25v2.5a1.25 1.25 0 0 1-2.5 0v-2.5c0-.69.56-1.25 1.25-1.25ZM7.75 25.25a1.25 1.25 0 1 0 0-2.5h-2.5a1.25 1.25 0 0 0 0 2.5h2.5ZM9.366 9.365a1.25 1.25 0 0 1 1.768 0l2.5 2.5a1.25 1.25 0 1 1-1.768 1.768l-2.5-2.5a1.25 1.25 0 0 1 0-1.768Zm1.768 29.269a1.25 1.25 0 1 1-1.768-1.768l2.5-2.5a1.25 1.25 0 1 1 1.768 1.768l-2.5 2.5Zm27.5-29.269a1.25 1.25 0 0 0-1.767 0l-2.5 2.5a1.25 1.25 0 0 0 1.768 1.768l2.5-2.5a1.25 1.25 0 0 0 0-1.768Zm-1.767 29.269a1.25 1.25 0 1 0 1.768-1.768l-2.5-2.5a1.25 1.25 0 1 0-1.768 1.768l2.5 2.5Z"/></svg>
